X: 15162
T: the Aberdeens Scots Meassure
%R: reel
B: James Oswald "The Caledonian Pocket Companion" v.1 b.5 p.16 #2
S: https://ia800501.us.archive.org/18/items/caledonianpocket01rugg/caledonianpocket01rugg_bw.pdf
Z: 2020 John Chambers <jc:trillian.mit.edu>
M: C|
L: 1/8
K: D
"_Brisk"AF |\
D2d2 d2a2 | Tf3e dfdA | FADE Ffed | c2e2 e2(fg) |\
afdB gecA | dBGB ecAc | afge fd aA | {A}B2d2 d2 :: (fg) |
abag fefd | Tf2a2 a2(DE) | FADF BGBd | Tc2e2 e2(fg) |\
afdB gecA | fdBG ecAG | FAGB AdEA | TF2ED D2 :|
